assets/img/svg/icon-smile.svg

<svg width="24" height="24" viewBox="0 0 24 24" fill="none" xmlns="http://www.w3.org/2000/svg">
<path fill-rule="evenodd" clip-rule="evenodd" d="M0.619141 0.986328L5.15842 3.57926C7.02449 2.06164 9.40624 1.15117 11.999 1.15117C13.1227 1.15117 14.2078 1.32225 15.229 1.64035C16.5617 2.05546 17.7835 2.72025 18.8399 3.57941L23.383 0.986713L22.8477 12.0196C22.8442 13.9781 22.321 15.8171 21.4081 17.4035C19.5365 20.6557 16.0243 22.8484 11.999 22.8484C8.04919 22.8484 4.59325 20.7371 2.69696 17.5852C1.97924 16.3923 1.48422 15.0495 1.26996 13.6151C1.19212 13.0939 1.15139 12.5611 1.15043 12.0194L0.619141 0.986328ZM2.49891 6.75762C2.56289 6.6419 2.62892 6.52747 2.69696 6.41439C3.05927 5.81219 3.47831 5.24819 3.94668 4.72973L2.35754 3.82198L2.49891 6.75762ZM11.999 2.75117C9.60817 2.75117 7.4308 3.65734 5.78872 5.1463C5.118 5.75448 4.53702 6.45959 4.06795 7.23924C3.23162 8.62932 2.75042 10.2571 2.75042 11.9998C2.75042 12.1533 2.75415 12.3059 2.76153 12.4575C4.77481 11.7374 6.95087 10.1405 8.95905 8.24332C10.8447 6.46191 12.5118 4.48389 13.6672 2.90106C13.1265 2.80264 12.569 2.75117 11.999 2.75117ZM15.3063 3.35983C14.0908 5.09318 12.2121 7.37124 10.0578 9.40639C7.92286 11.4233 5.43037 13.2856 2.98318 14.0716C3.20326 15.0336 3.57343 15.9384 4.06795 16.7603C5.6869 19.4512 8.63349 21.2484 11.999 21.2484C15.4288 21.2484 18.4236 19.3819 20.0213 16.6054C20.8013 15.25 21.2477 13.6782 21.2477 11.9998V11.9804L21.6436 3.82159L18.6393 5.53611L18.2094 5.1463C17.3676 4.38302 16.3852 3.7731 15.3063 3.35983ZM12.4341 17.1208C11.2017 17.2188 9.87226 16.8602 8.54273 15.8546L9.50793 14.5785C10.5574 15.3722 11.5046 15.5897 12.3072 15.5258C13.1261 15.4607 13.8733 15.0959 14.4855 14.5966L15.4968 15.8365C14.6965 16.4892 13.6503 17.0241 12.4341 17.1208Z" fill="white"/>
<path d="M17.127 11.4483C17.127 12.1327 16.5721 12.6875 15.8877 12.6875C15.2033 12.6875 14.6484 12.1327 14.6484 11.4483C14.6484 10.7638 15.2033 10.209 15.8877 10.209C16.5721 10.209 17.127 10.7638 17.127 11.4483Z" fill="white"/>
<path d="M9.34964 11.4483C9.34964 12.1327 8.7948 12.6875 8.11037 12.6875C7.42594 12.6875 6.87109 12.1327 6.87109 11.4483C6.87109 10.7638 7.42594 10.209 8.11037 10.209C8.7948 10.209 9.34964 10.7638 9.34964 11.4483Z" fill="white"/>
</svg>

<svg xmlns="http://www.w3.org/2000/svg" width="24" height="24" fill="none"><path fill="#fff" fill-rule="evenodd" d="M.62.986 5.157 3.58A10.807 10.807 0 0 1 12 1.151a10.826 10.826 0 0 1 6.84 2.428L23.384.987l-.535 11.033a10.845 10.845 0 0 1-10.849 10.829A10.843 10.843 0 0 1 1.15 12.018L.62.986Zm1.879 5.772A10.825 10.825 0 0 1 3.947 4.73l-1.59-.908.142 2.936Zm9.5-4.007c-2.39 0-4.568.906-6.21 2.395A9.296 9.296 0 0 0 4.068 7.24a9.202 9.202 0 0 0-1.306 5.218c2.013-.72 4.189-2.317 6.197-4.214a40.475 40.475 0 0 0 4.708-5.342A9.31 9.31 0 0 0 12 2.751Zm3.307.609c-1.215 1.733-3.094 4.011-5.248 6.046-2.135 2.017-4.628 3.88-7.075 4.666A9.243 9.243 0 0 0 12 21.249a9.245 9.245 0 0 0 9.249-9.25v-.019l.396-8.158-3.005 1.714-.43-.39a9.25 9.25 0 0 0-2.903-1.786Zm-2.872 13.76c-1.232.099-2.562-.26-3.891-1.265l.965-1.277c1.05.794 1.997 1.012 2.8.948.818-.065 1.565-.43 2.178-.93l1.01 1.24c-.8.653-1.846 1.188-3.062 1.285Z" clip-rule="evenodd"/><path fill="#fff" d="M17.127 11.448a1.24 1.24 0 1 1-2.479 0 1.24 1.24 0 0 1 2.479 0ZM9.35 11.448a1.24 1.24 0 1 1-2.479 0 1.24 1.24 0 0 1 2.479 0Z"/></svg>
